build/img-landing/svg/cap6.svg

<svg width="66" height="66" viewBox="0 0 66 66" fill="none" xmlns="http://www.w3.org/2000/svg">
<path d="M29.7974 5.32677H21.2876V7.45748H29.7974V5.32677Z" fill="#E30613"/>
<path d="M18.0786 57.4902H9.56873V59.6209H18.0786V57.4902Z" fill="#E30613"/>
<path d="M41.5034 57.4902H32.9935V59.6209H41.5034V57.4902Z" fill="#E30613"/>
<path d="M19.157 5.32677H17.0262V7.45748H19.157V5.32677Z" fill="#E30613"/>
<path d="M25.5361 54.2941C23.1845 54.2941 21.2747 56.2039 21.2747 58.5555C21.2747 60.9071 23.1845 62.8169 25.5361 62.8169C27.8877 62.8169 29.7975 60.9071 29.7975 58.5555C29.7975 56.2039 27.8877 54.2941 25.5361 54.2941ZM25.5361 60.6732C24.3668 60.6732 23.4054 59.7118 23.4054 58.5425C23.4054 57.3732 24.3538 56.4118 25.5361 56.4118C26.7054 56.4118 27.6668 57.3732 27.6668 58.5425C27.6668 59.7248 26.7184 60.6732 25.5361 60.6732Z" fill="#E30613"/>
<path d="M57.4837 17.0327H47.9085V3.19606C47.9085 1.42913 46.4793 0 44.7124 0H6.38564C4.61871 0 3.18958 1.42913 3.18958 3.19606V62.8039C3.18958 64.5709 4.61871 66 6.38564 66H44.7124C46.4793 66 47.9085 64.5709 47.9085 62.8039V42.5752H57.4837C60.4199 42.5752 62.8104 40.1846 62.8104 37.2484V22.3594C62.7975 19.4232 60.4069 17.0327 57.4837 17.0327ZM45.7648 62.8039C45.7648 63.3886 45.2841 63.8693 44.6994 63.8693H6.37265C5.788 63.8693 5.30729 63.3886 5.30729 62.8039V3.19606C5.30729 2.61142 5.788 2.13071 6.37265 2.13071H44.6994C45.2841 2.13071 45.7648 2.61142 45.7648 3.19606V17.0327H41.5034V10.6406H9.56871V53.2157H41.5034V42.5752H45.7648V62.8039ZM34.0589 42.5752V47.9799L39.3856 43.7185V51.085H11.7124V12.7583H39.3856V17.0197H34.0589C31.1226 17.0197 28.7321 19.4102 28.7321 22.3465V37.2484C28.7321 40.1976 31.1226 42.5752 34.0589 42.5752ZM60.6667 37.2614C60.6667 39.0283 59.2376 40.4575 57.4707 40.4575H40.0612L36.1766 43.5626V40.4575H34.0459C32.2789 40.4575 30.8498 39.0283 30.8498 37.2614V22.3594C30.8498 20.5925 32.2789 19.1634 34.0459 19.1634H57.4707C59.2376 19.1634 60.6667 20.5925 60.6667 22.3594V37.2614Z" fill="#E30613"/>
<path d="M57.4836 23.4248H34.0588V25.5555H57.4836V23.4248Z" fill="#E30613"/>
<path d="M57.4836 28.7386H34.0588V30.8693H57.4836V28.7386Z" fill="#E30613"/>
<path d="M46.8301 34.0654H44.6993V36.1961H46.8301V34.0654Z" fill="#E30613"/>
<path d="M51.0915 34.0654H48.9608V36.1961H51.0915V34.0654Z" fill="#E30613"/>
<path d="M42.5818 34.0654H40.451V36.1961H42.5818V34.0654Z" fill="#E30613"/>
</svg>

<svg width="66" height="66" viewBox="0 0 66 66" fill="none" xmlns="http://www.w3.org/2000/svg"><path d="M29.797 5.327h-8.51v2.13h8.51v-2.13zM18.079 57.49h-8.51v2.13h8.51v-2.13zm23.424 0h-8.51v2.13h8.51v-2.13zM19.157 5.327h-2.13v2.13h2.13v-2.13zm6.379 48.967a4.264 4.264 0 0 0-4.261 4.262 4.264 4.264 0 0 0 4.261 4.26 4.264 4.264 0 0 0 4.261-4.26 4.264 4.264 0 0 0-4.26-4.262zm0 6.38a2.14 2.14 0 0 1-2.13-2.132c0-1.169.948-2.13 2.13-2.13 1.17 0 2.13.961 2.13 2.13a2.123 2.123 0 0 1-2.13 2.131z" fill="#E30613"/><path d="M57.484 17.033h-9.576V3.196A3.194 3.194 0 0 0 44.712 0H6.386A3.194 3.194 0 0 0 3.19 3.196v59.608A3.194 3.194 0 0 0 6.386 66h38.326a3.194 3.194 0 0 0 3.196-3.196V42.575h9.576a5.334 5.334 0 0 0 5.326-5.327V22.36c-.013-2.936-2.403-5.326-5.326-5.326zm-11.72 45.77A1.07 1.07 0 0 1 44.7 63.87H6.373a1.07 1.07 0 0 1-1.066-1.065V3.196a1.07 1.07 0 0 1 1.066-1.065h38.326c.585 0 1.066.48 1.066 1.065v13.837h-4.262V10.64H9.57v42.575h31.934v-10.64h4.262v20.228zM34.06 42.576v5.405l5.327-4.261v7.366H11.712V12.758h27.674v4.262h-5.327a5.334 5.334 0 0 0-5.327 5.326v14.902c0 2.95 2.39 5.327 5.327 5.327zm26.608-5.314a3.194 3.194 0 0 1-3.196 3.197H40.06l-3.884 3.105v-3.105h-2.131a3.194 3.194 0 0 1-3.196-3.197V22.36a3.194 3.194 0 0 1 3.196-3.196H57.47a3.194 3.194 0 0 1 3.196 3.196v14.902z" fill="#E30613"/><path d="M57.484 23.425H34.059v2.13h23.425v-2.13zm0 5.314H34.059v2.13h23.425v-2.13zM46.83 34.065H44.7v2.131h2.13v-2.13zm4.262 0H48.96v2.131h2.13v-2.13zm-8.51 0H40.45v2.131h2.13v-2.13z" fill="#E30613"/></svg>
